X: 11
T: pi = 4(1-1/3+1/5-1/7+1/9-...)
C: Based on O How Lovely Is the Evening
M:3/4
K:D
L:1/4
Q:1/4=ca. 116
  "1." "D" (d2 e) | (f2 d) | "G" (g2 f) | "D" (f e d) | "G" (g2 f) | "D" (f e d) |
w: Pi is eq-ual to - four - - mi-nus four - thirds,
  "2." (f2 g) | (a2 f) | "G" (b2 a) | "D" (a g f) | "G" (b2 a) | "D" (a g f) |
w: Plus four fi-fths,-Minus-four-se-v-enths, Plus four ni-nths, -
  "3."  d2 d | d2 A | "G" d2 B | "D" d3 | "G" d2 A | "D" d3 :|
w: Minus four elevenths, - plus four thirteenths, minus four fifteenths
W: Plus four seventeenths,  minus four nineteenths,
W: Plus four twenty-oneths, minus four twenty-thirds,
W: etc.
W: At some point,  switch lyrics for third part to "and on,  and on,  and on..."

